brandFactory_export/3.Masa/Archivos digitales_3Masa.svg

<?xml version="1.0" encoding="UTF-8"?>
<svg width="24px" height="24px" viewBox="0 0 24 24" version="1.1" xmlns="http://www.w3.org/2000/svg" xmlns:xlink="http://www.w3.org/1999/xlink">
    <title>3.Masa/Archivos digitales_3Masa</title>
    <g id="Symbols" stroke="none" stroke-width="1" fill="none" fill-rule="evenodd">
        <g id="3.Masa/Archivos-digitales_3Masa" fill="#5CB615" fill-rule="nonzero">
            <path d="M10.0168067,20.1647059 L1.44201681,20.1647059 L1.44201681,7.9092437 L5.77142857,7.9092437 L5.77142857,9.27058824 C5.77142857,10.087395 6.05042017,10.8 6.57815126,11.3210084 C7.09915966,11.8420168 7.79831933,12.1109244 8.61848739,12.1109244 L10.0134454,12.1109244 L10.0134454,20.1647059 L10.0168067,20.1647059 Z M7.21680672,7.9697479 L9.96302521,10.6319328 L8.61848739,10.6319328 C8.3092437,10.6319328 7.89579832,10.5747899 7.57983193,10.2655462 C7.33781513,10.0201681 7.21344538,9.68403361 7.21344538,9.27058824 L7.21344538,7.9697479 L7.21680672,7.9697479 Z M20.0638655,15.7579832 C21.2,15.7579832 22.0840336,15.4319328 22.6823529,14.7932773 C23.2705882,14.1815126 23.5596639,13.3042017 23.5596639,12.1781513 L23.5596639,5.56302521 C23.5596639,4.44033613 23.2705882,3.57310924 22.6823529,2.96134454 C22.087395,2.32941176 21.2,2.01344538 20.0638655,2.01344538 L6.32268908,2.02352941 C5.18655462,2.02352941 4.30252101,2.3394958 3.70420168,2.96806723 C3.12941176,3.5697479 2.82689076,4.44705882 2.82689076,5.5697479 L2.82689076,6.42689076 L1.29747899,6.42689076 C0.605042017,6.42689076 0,7.03865546 0,7.74789916 L0,20.3294118 C0,21.0386555 0.594957983,21.6403361 1.29747899,21.6403361 L10.1613445,21.6403361 C10.8638655,21.6403361 11.4588235,21.0386555 11.4588235,20.3294118 L11.4588235,18.1882353 L22.8336134,18.1882353 C23.2369748,18.1882353 23.5563025,17.8621849 23.5563025,17.4487395 C23.5563025,17.0453782 23.2403361,16.7092437 22.8336134,16.7092437 L11.4588235,16.7092437 L11.4588235,15.7613445 L20.0638655,15.7579832 Z" id="Archivos-digitales_3Masa"></path>
        </g>
    </g>
</svg>

<svg width="24" height="24" viewBox="0 0 24 24" xmlns="http://www.w3.org/2000/svg"><path d="M10.017 20.165H1.442V7.909h4.33v1.362c0 .816.278 1.529.806 2.05.521.521 1.22.79 2.04.79h1.395v8.054h.004zM7.217 7.97l2.746 2.662H8.618c-.309 0-.722-.057-1.038-.366-.242-.246-.367-.582-.367-.995V7.97h.004zm12.847 7.788c1.136 0 2.02-.326 2.618-.965.589-.611.878-1.489.878-2.615V5.563c0-1.123-.29-1.99-.878-2.602-.595-.632-1.482-.948-2.618-.948l-13.741.01c-1.136 0-2.02.316-2.619.945-.575.602-.877 1.48-.877 2.602v.857h-1.53C.605 6.427 0 7.039 0 7.747V20.33c0 .71.595 1.311 1.297 1.311h8.864c.703 0 1.298-.601 1.298-1.31v-2.142h11.375a.725.725 0 00.722-.74.73.73 0 00-.722-.739H11.459v-.948l8.605-.003z" fill="#5CB615" fill-rule="nonzero"/></svg>
